X:1
T:Apples In Winter
C:Trad
L:1/8
M:6/8
I:linebreak $
K:Emin
V:1 treble 
V:1
 BEE dEE | BAG FEF | DED FDF | ABc ded | BEE BAB | ^def gfe | fdB AdF |1$ FEE Edc :|2 FEE E2 B |: %9
 efe edB | e/f/ge fdB | ded dAF | DFA ^def | edB ^def |$ gba gfe | fdB AdF | FEE E2 B :| %17
